report_00007_2020-12-11T15:55:29.892Z/bootup-time/comparison/line/2_vs_3.svg

<svg width="640" height="500" xmlns="http://www.w3.org/2000/svg" xmlns:xlink="http://www.w3.org/1999/xlink"><path fill="#fff" d="M0 0h640v500H0z"/><defs><path id="d" stroke-width=".222" stroke="currentColor" d="M-1-1h2v2h-2z"/><path id="b" stroke-width=".222" stroke="currentColor" d="M0-1.33l-1.33 2h2.66z"/><path id="f" stroke-width=".222" stroke="currentColor" d="M0 1.33L1.265.411.782-1.067l-1.564-.009-.483 1.487z"/><use xlink:href="#b" id="c" stroke="currentColor" transform="rotate(180)"/><use xlink:href="#d" id="e" stroke="currentColor" transform="rotate(45)"/><circle id="a" stroke-width=".222" stroke="currentColor" cx="0" cy="0" r="1"/></defs><g fill="none" color="#000" stroke="currentColor"><path stroke="#000" d="M53.9 410.5h9m552.1 0h-9"/><text transform="translate(45.6 414.4)" stroke="none" fill="#000" font-family="Arial" font-size="12" text-anchor="end"><tspan>540</tspan></text></g><g fill="none" color="#000" stroke="currentColor"><path stroke="#000" d="M53.9 367.8h9m552.1 0h-9"/><text transform="translate(45.6 371.7)" stroke="none" fill="#000" font-family="Arial" font-size="12" text-anchor="end"><tspan>550</tspan></text></g><g fill="none" color="#000" stroke="currentColor"><path stroke="#000" d="M53.9 325.1h9m552.1 0h-9"/><text transform="translate(45.6 329)" stroke="none" fill="#000" font-family="Arial" font-size="12" text-anchor="end"><tspan>560</tspan></text></g><g fill="none" color="#000" stroke="currentColor"><path stroke="#000" d="M53.9 282.4h9m552.1 0h-9"/><text transform="translate(45.6 286.3)" stroke="none" fill="#000" font-family="Arial" font-size="12" text-anchor="end"><tspan>570</tspan></text></g><g fill="none" color="#000" stroke="currentColor"><path stroke="#000" d="M53.9 239.7h9m552.1 0h-9"/><text transform="translate(45.6 243.6)" stroke="none" fill="#000" font-family="Arial" font-size="12" text-anchor="end"><tspan>580</tspan></text></g><g fill="none" color="#000" stroke="currentColor"><path stroke="#000" d="M53.9 197h9m552.1 0h-9"/><text transform="translate(45.6 200.9)" stroke="none" fill="#000" font-family="Arial" font-size="12" text-anchor="end"><tspan>590</tspan></text></g><g fill="none" color="#000" stroke="currentColor"><path stroke="#000" d="M53.9 154.4h9m552.1 0h-9"/><text transform="translate(45.6 158.3)" stroke="none" fill="#000" font-family="Arial" font-size="12" text-anchor="end"><tspan>600</tspan></text></g><g fill="none" color="#000" stroke="currentColor"><path stroke="#000" d="M53.9 111.7h9m552.1 0h-9"/><text transform="translate(45.6 115.6)" stroke="none" fill="#000" font-family="Arial" font-size="12" text-anchor="end"><tspan>610</tspan></text></g><g fill="none" color="#000" stroke="currentColor"><path stroke="#000" d="M53.9 69h9M615 69h-9"/><text transform="translate(45.6 72.9)" stroke="none" fill="#000" font-family="Arial" font-size="12" text-anchor="end"><tspan>620</tspan></text></g><g fill="none" color="#000" stroke="currentColor"><path stroke="#000" d="M53.9 26.3h9m552.1 0h-9"/><text transform="translate(45.6 30.2)" stroke="none" fill="#000" font-family="Arial" font-size="12" text-anchor="end"><tspan>630</tspan></text></g><g fill="none" color="#000" stroke="currentColor"><path stroke="#000" d="M53.9 428v-9m0-400.9v9"/><text transform="translate(53.9 449.9)" stroke="none" fill="#000" font-family="Arial" font-size="12" text-anchor="middle"><tspan>0</tspan></text></g><g fill="none" color="#000" stroke="currentColor"><path stroke="#000" d="M110.6 428v-9m0-400.9v9"/><text transform="translate(110.6 449.9)" stroke="none" fill="#000" font-family="Arial" font-size="12" text-anchor="middle"><tspan>10</tspan></text></g><g fill="none" color="#000" stroke="currentColor"><path stroke="#000" d="M167.3 428v-9m0-400.9v9"/><text transform="translate(167.3 449.9)" stroke="none" fill="#000" font-family="Arial" font-size="12" text-anchor="middle"><tspan>20</tspan></text></g><g fill="none" color="#000" stroke="currentColor"><path stroke="#000" d="M223.9 428v-9m0-400.9v9"/><text transform="translate(223.9 449.9)" stroke="none" fill="#000" font-family="Arial" font-size="12" text-anchor="middle"><tspan>30</tspan></text></g><g fill="none" color="#000" stroke="currentColor"><path stroke="#000" d="M280.6 428v-9m0-400.9v9"/><text transform="translate(280.6 449.9)" stroke="none" fill="#000" font-family="Arial" font-size="12" text-anchor="middle"><tspan>40</tspan></text></g><g fill="none" color="#000" stroke="currentColor"><path stroke="#000" d="M337.3 428v-9m0-400.9v9"/><text transform="translate(337.3 449.9)" stroke="none" fill="#000" font-family="Arial" font-size="12" text-anchor="middle"><tspan>50</tspan></text></g><g fill="none" color="#000" stroke="currentColor"><path stroke="#000" d="M394 428v-9m0-400.9v9"/><text transform="translate(394 449.9)" stroke="none" fill="#000" font-family="Arial" font-size="12" text-anchor="middle"><tspan>60</tspan></text></g><g fill="none" color="#000" stroke="currentColor"><path stroke="#000" d="M450.6 428v-9m0-400.9v9"/><text transform="translate(450.6 449.9)" stroke="none" fill="#000" font-family="Arial" font-size="12" text-anchor="middle"><tspan>70</tspan></text></g><g fill="none" color="#000" stroke="currentColor"><path stroke="#000" d="M507.3 428v-9m0-400.9v9"/><text transform="translate(507.3 449.9)" stroke="none" fill="#000" font-family="Arial" font-size="12" text-anchor="middle"><tspan>80</tspan></text></g><g fill="none" color="#000" stroke="currentColor"><path stroke="#000" d="M564 428v-9m0-400.9v9"/><text transform="translate(564 449.9)" stroke="none" fill="#000" font-family="Arial" font-size="12" text-anchor="middle"><tspan>90</tspan></text></g><path stroke="#000" d="M53.9 18.1V428H615V18.1H53.9z" fill="none" color="#000"/><text transform="translate(275.6 467.9)" stroke="none" fill="#000" font-family="Arial" font-size="12" text-anchor="end" color="#000"><tspan>pages+cached</tspan></text><path stroke="#9400D3" d="M283.9 464h42.2M53.9 287.3l5.7-20.9 5.6 57.6 5.7-62.1 5.7 10.4 5.6-182.7 5.7 289.6 5.7-152.6 5.6 116.2 5.7-62.3 5.7 91.5 5.6-9.6 5.7-84.9L127.6 26l5.6 246.4 5.7-56.4 5.7 158.5 5.7-176.7 5.6 58.1 5.7 117.1 5.7-100.3 5.6-5.1 5.7-20.3 5.7 121.5 5.6-128.9 5.7-64.5 5.7 188.5 5.6-104.2 5.7 30.3 5.7 53.2 5.6-80.6 5.7 89 5.7 31.2 5.6 8.7 5.7 12.1 5.7-196.8 5.6 110.6 5.7-288.6 5.7 325.3 5.6-25.9 5.7-62.9 5.7.8 5.6-35.5 5.7-60.3 5.7 188.6 5.6-122.3 5.7 135.4 5.7-221 5.6 238 5.7-134.6 5.7 106.5L343 145l5.6 188 5.7 16 5.7-104 5.6 75.3 5.7-6 5.7 30.6 5.6-55 5.7-40.1 5.7 135.7 5.6-49.5 5.7 64.9L411 330l5.6-81.7 5.7-43.4 5.7 168.3 5.6-87.8 5.7 54.8 5.7 36 5.6 5.9 5.7-10.9L462 221l5.6 100.8 5.7-41.9 5.7 75.7 5.6 24.2 5.7 40.3 5.7-55.7 5.6-87.1 5.7-48 5.7 61.1 5.6-16.7 5.7 117.1L530 364l5.7 24.2 5.6-24.5 5.7 8.9 5.7 5.1 5.6 2.3 5.7-112.1 5.7 83.9 5.6-8.4 5.7 33.3 5.7-121.2 5.6 125 5.7-9.2 5.7-1 5.6-127.4 5.7 6.8" fill="none" color="#000"/><text transform="translate(275.6 485.9)" stroke="none" fill="#000" font-family="Arial" font-size="12" text-anchor="end" color="#000"><tspan>pages+cached+nointeractive</tspan></text><path stroke="#009E73" d="M283.9 482h42.2M53.9 238.8l5.7 154 5.6-232.2 5.7 135.2 5.7-37.3 5.6 112.2 5.7-129 5.7 143.2 5.6-120.6 5.7-130.4 5.7 158.7 5.6-29.4 5.7 39.4 5.7-44.5 5.6 133.3 5.7-3.9 5.7-109.8 5.7 124.5 5.6-35.1 5.7-94.9 5.7 111.9 5.6-10.5 5.7 14.5 5.7-106 5.6-101.7 5.7 179.2 5.7 29.4 5.6 1.1 5.7-8 5.7 19 5.6-121.4 5.7 108.1 5.7 1.4 5.6-133.3 5.7 138.3 5.7 7.3 5.6-64.9 5.7-1.3 5.7-58.2 5.6 83.9 5.7 21.4 5.7-97 5.6 130.3 5.7-135.5 5.7 107 5.6-26 5.7 8.6 5.7-33.6 5.6-15.4 5.7 60.3 5.7-11.9 5.7-5.4 5.6-.7 5.7 25.5 5.7-34.4 5.6 30.3 5.7-154.1 5.7 55.4 5.6 87.9 5.7 30.7 5.7-21.3 5.6-100.7 5.7 95.9 5.7 20.6 5.6-4.1 5.7-32.3 5.7 23.2 5.6-1.6 5.7-91 5.7 74.1 5.6-114.4 5.7 13.5 5.7 95.6 5.6-91.4 5.7 95.7 5.7 10.3 5.6 10.5 5.7.6 5.7 7.2 5.6 19 5.7-77.6 5.7 20.1 5.6-39.8 5.7 70 5.7-7 5.7-139.6 5.6 136.8 5.7-132 5.7 123.8 5.6 1 5.7 23 5.7-98.5 5.6 101.6 5.7-5.6 5.7-41 5.6-64.9 5.7 105.2 5.7-15.6 5.6-102.2 5.7 56.2" fill="none" color="#000"/><text transform="translate(550.2 467.9)" stroke="none" fill="#000" font-family="Arial" font-size="12" text-anchor="end" color="#000"><tspan>score p10=1282</tspan></text><path stroke="#56B4E9" d="M558.5 464h42.2" fill="none" color="#000"/><g><text transform="translate(550.2 485.9)" stroke="none" fill="#000" font-family="Arial" font-size="12" text-anchor="end" color="#000"><tspan>score median=3500</tspan></text><path stroke="#E69F00" d="M558.5 482h42.2" fill="none" color="#000"/></g><g fill="none" color="#000" stroke="currentColor"><path stroke="#000" d="M53.9 18.1V428H615V18.1H53.9z"/></g></svg>

<?xml version="1.0" encoding="utf-8"  standalone="no"?>
<svg 
 width="640" height="500"
 viewBox="0 0 640 500"
 xmlns="http://www.w3.org/2000/svg"
 xmlns:xlink="http://www.w3.org/1999/xlink"
>

<title>Gnuplot</title>
<desc>Produced by GNUPLOT 5.4 patchlevel 0 </desc>

<g id="gnuplot_canvas">

<rect x="0" y="0" width="640" height="500" fill="#ffffff"/>
<defs>

	<circle id='gpDot' r='0.5' stroke-width='0.5' stroke='currentColor'/>
	<path id='gpPt0' stroke-width='0.222' stroke='currentColor' d='M-1,0 h2 M0,-1 v2'/>
	<path id='gpPt1' stroke-width='0.222' stroke='currentColor' d='M-1,-1 L1,1 M1,-1 L-1,1'/>
	<path id='gpPt2' stroke-width='0.222' stroke='currentColor' d='M-1,0 L1,0 M0,-1 L0,1 M-1,-1 L1,1 M-1,1 L1,-1'/>
	<rect id='gpPt3' stroke-width='0.222' stroke='currentColor' x='-1' y='-1' width='2' height='2'/>
	<rect id='gpPt4' stroke-width='0.222' stroke='currentColor' fill='currentColor' x='-1' y='-1' width='2' height='2'/>
	<circle id='gpPt5' stroke-width='0.222' stroke='currentColor' cx='0' cy='0' r='1'/>
	<use xlink:href='#gpPt5' id='gpPt6' fill='currentColor' stroke='none'/>
	<path id='gpPt7' stroke-width='0.222' stroke='currentColor' d='M0,-1.33 L-1.33,0.67 L1.33,0.67 z'/>
	<use xlink:href='#gpPt7' id='gpPt8' fill='currentColor' stroke='none'/>
	<use xlink:href='#gpPt7' id='gpPt9' stroke='currentColor' transform='rotate(180)'/>
	<use xlink:href='#gpPt9' id='gpPt10' fill='currentColor' stroke='none'/>
	<use xlink:href='#gpPt3' id='gpPt11' stroke='currentColor' transform='rotate(45)'/>
	<use xlink:href='#gpPt11' id='gpPt12' fill='currentColor' stroke='none'/>
	<path id='gpPt13' stroke-width='0.222' stroke='currentColor' d='M0,1.330 L1.265,0.411 L0.782,-1.067 L-0.782,-1.076 L-1.265,0.411 z'/>
	<use xlink:href='#gpPt13' id='gpPt14' fill='currentColor' stroke='none'/>
	<filter id='textbox' filterUnits='objectBoundingBox' x='0' y='0' height='1' width='1'>
	  <feFlood flood-color='#FFFFFF' flood-opacity='1' result='bgnd'/>
	  <feComposite in='SourceGraphic' in2='bgnd' operator='atop'/>
	</filter>
	<filter id='greybox' filterUnits='objectBoundingBox' x='0' y='0' height='1' width='1'>
	  <feFlood flood-color='lightgrey' flood-opacity='1' result='grey'/>
	  <feComposite in='SourceGraphic' in2='grey' operator='atop'/>
	</filter>
</defs>
<g fill="none" color="#FFFFFF" stroke="black" stroke-width="1.00" stroke-linecap="butt" stroke-linejoin="miter">
</g>
<g fill="none" color="black" stroke="currentColor" stroke-width="1.00" stroke-linecap="butt" stroke-linejoin="miter">
	<path stroke='black'  d='M53.9,410.5 L62.9,410.5 M615.0,410.5 L606.0,410.5  '/>	<g transform="translate(45.6,414.4)" stroke="none" fill="black" font-family="Arial" font-size="12.00"  text-anchor="end">
		<text><tspan font-family="Arial" > 540</tspan></text>
	</g>
</g>
<g fill="none" color="black" stroke="currentColor" stroke-width="1.00" stroke-linecap="butt" stroke-linejoin="miter">
	<path stroke='black'  d='M53.9,367.8 L62.9,367.8 M615.0,367.8 L606.0,367.8  '/>	<g transform="translate(45.6,371.7)" stroke="none" fill="black" font-family="Arial" font-size="12.00"  text-anchor="end">
		<text><tspan font-family="Arial" > 550</tspan></text>
	</g>
</g>
<g fill="none" color="black" stroke="currentColor" stroke-width="1.00" stroke-linecap="butt" stroke-linejoin="miter">
	<path stroke='black'  d='M53.9,325.1 L62.9,325.1 M615.0,325.1 L606.0,325.1  '/>	<g transform="translate(45.6,329.0)" stroke="none" fill="black" font-family="Arial" font-size="12.00"  text-anchor="end">
		<text><tspan font-family="Arial" > 560</tspan></text>
	</g>
</g>
<g fill="none" color="black" stroke="currentColor" stroke-width="1.00" stroke-linecap="butt" stroke-linejoin="miter">
	<path stroke='black'  d='M53.9,282.4 L62.9,282.4 M615.0,282.4 L606.0,282.4  '/>	<g transform="translate(45.6,286.3)" stroke="none" fill="black" font-family="Arial" font-size="12.00"  text-anchor="end">
		<text><tspan font-family="Arial" > 570</tspan></text>
	</g>
</g>
<g fill="none" color="black" stroke="currentColor" stroke-width="1.00" stroke-linecap="butt" stroke-linejoin="miter">
	<path stroke='black'  d='M53.9,239.7 L62.9,239.7 M615.0,239.7 L606.0,239.7  '/>	<g transform="translate(45.6,243.6)" stroke="none" fill="black" font-family="Arial" font-size="12.00"  text-anchor="end">
		<text><tspan font-family="Arial" > 580</tspan></text>
	</g>
</g>
<g fill="none" color="black" stroke="currentColor" stroke-width="1.00" stroke-linecap="butt" stroke-linejoin="miter">
	<path stroke='black'  d='M53.9,197.0 L62.9,197.0 M615.0,197.0 L606.0,197.0  '/>	<g transform="translate(45.6,200.9)" stroke="none" fill="black" font-family="Arial" font-size="12.00"  text-anchor="end">
		<text><tspan font-family="Arial" > 590</tspan></text>
	</g>
</g>
<g fill="none" color="black" stroke="currentColor" stroke-width="1.00" stroke-linecap="butt" stroke-linejoin="miter">
	<path stroke='black'  d='M53.9,154.4 L62.9,154.4 M615.0,154.4 L606.0,154.4  '/>	<g transform="translate(45.6,158.3)" stroke="none" fill="black" font-family="Arial" font-size="12.00"  text-anchor="end">
		<text><tspan font-family="Arial" > 600</tspan></text>
	</g>
</g>
<g fill="none" color="black" stroke="currentColor" stroke-width="1.00" stroke-linecap="butt" stroke-linejoin="miter">
	<path stroke='black'  d='M53.9,111.7 L62.9,111.7 M615.0,111.7 L606.0,111.7  '/>	<g transform="translate(45.6,115.6)" stroke="none" fill="black" font-family="Arial" font-size="12.00"  text-anchor="end">
		<text><tspan font-family="Arial" > 610</tspan></text>
	</g>
</g>
<g fill="none" color="black" stroke="currentColor" stroke-width="1.00" stroke-linecap="butt" stroke-linejoin="miter">
	<path stroke='black'  d='M53.9,69.0 L62.9,69.0 M615.0,69.0 L606.0,69.0  '/>	<g transform="translate(45.6,72.9)" stroke="none" fill="black" font-family="Arial" font-size="12.00"  text-anchor="end">
		<text><tspan font-family="Arial" > 620</tspan></text>
	</g>
</g>
<g fill="none" color="black" stroke="currentColor" stroke-width="1.00" stroke-linecap="butt" stroke-linejoin="miter">
	<path stroke='black'  d='M53.9,26.3 L62.9,26.3 M615.0,26.3 L606.0,26.3  '/>	<g transform="translate(45.6,30.2)" stroke="none" fill="black" font-family="Arial" font-size="12.00"  text-anchor="end">
		<text><tspan font-family="Arial" > 630</tspan></text>
	</g>
</g>
<g fill="none" color="black" stroke="currentColor" stroke-width="1.00" stroke-linecap="butt" stroke-linejoin="miter">
	<path stroke='black'  d='M53.9,428.0 L53.9,419.0 M53.9,18.1 L53.9,27.1  '/>	<g transform="translate(53.9,449.9)" stroke="none" fill="black" font-family="Arial" font-size="12.00"  text-anchor="middle">
		<text><tspan font-family="Arial" > 0</tspan></text>
	</g>
</g>
<g fill="none" color="black" stroke="currentColor" stroke-width="1.00" stroke-linecap="butt" stroke-linejoin="miter">
	<path stroke='black'  d='M110.6,428.0 L110.6,419.0 M110.6,18.1 L110.6,27.1  '/>	<g transform="translate(110.6,449.9)" stroke="none" fill="black" font-family="Arial" font-size="12.00"  text-anchor="middle">
		<text><tspan font-family="Arial" > 10</tspan></text>
	</g>
</g>
<g fill="none" color="black" stroke="currentColor" stroke-width="1.00" stroke-linecap="butt" stroke-linejoin="miter">
	<path stroke='black'  d='M167.3,428.0 L167.3,419.0 M167.3,18.1 L167.3,27.1  '/>	<g transform="translate(167.3,449.9)" stroke="none" fill="black" font-family="Arial" font-size="12.00"  text-anchor="middle">
		<text><tspan font-family="Arial" > 20</tspan></text>
	</g>
</g>
<g fill="none" color="black" stroke="currentColor" stroke-width="1.00" stroke-linecap="butt" stroke-linejoin="miter">
	<path stroke='black'  d='M223.9,428.0 L223.9,419.0 M223.9,18.1 L223.9,27.1  '/>	<g transform="translate(223.9,449.9)" stroke="none" fill="black" font-family="Arial" font-size="12.00"  text-anchor="middle">
		<text><tspan font-family="Arial" > 30</tspan></text>
	</g>
</g>
<g fill="none" color="black" stroke="currentColor" stroke-width="1.00" stroke-linecap="butt" stroke-linejoin="miter">
	<path stroke='black'  d='M280.6,428.0 L280.6,419.0 M280.6,18.1 L280.6,27.1  '/>	<g transform="translate(280.6,449.9)" stroke="none" fill="black" font-family="Arial" font-size="12.00"  text-anchor="middle">
		<text><tspan font-family="Arial" > 40</tspan></text>
	</g>
</g>
<g fill="none" color="black" stroke="currentColor" stroke-width="1.00" stroke-linecap="butt" stroke-linejoin="miter">
	<path stroke='black'  d='M337.3,428.0 L337.3,419.0 M337.3,18.1 L337.3,27.1  '/>	<g transform="translate(337.3,449.9)" stroke="none" fill="black" font-family="Arial" font-size="12.00"  text-anchor="middle">
		<text><tspan font-family="Arial" > 50</tspan></text>
	</g>
</g>
<g fill="none" color="black" stroke="currentColor" stroke-width="1.00" stroke-linecap="butt" stroke-linejoin="miter">
	<path stroke='black'  d='M394.0,428.0 L394.0,419.0 M394.0,18.1 L394.0,27.1  '/>	<g transform="translate(394.0,449.9)" stroke="none" fill="black" font-family="Arial" font-size="12.00"  text-anchor="middle">
		<text><tspan font-family="Arial" > 60</tspan></text>
	</g>
</g>
<g fill="none" color="black" stroke="currentColor" stroke-width="1.00" stroke-linecap="butt" stroke-linejoin="miter">
	<path stroke='black'  d='M450.6,428.0 L450.6,419.0 M450.6,18.1 L450.6,27.1  '/>	<g transform="translate(450.6,449.9)" stroke="none" fill="black" font-family="Arial" font-size="12.00"  text-anchor="middle">
		<text><tspan font-family="Arial" > 70</tspan></text>
	</g>
</g>
<g fill="none" color="black" stroke="currentColor" stroke-width="1.00" stroke-linecap="butt" stroke-linejoin="miter">
	<path stroke='black'  d='M507.3,428.0 L507.3,419.0 M507.3,18.1 L507.3,27.1  '/>	<g transform="translate(507.3,449.9)" stroke="none" fill="black" font-family="Arial" font-size="12.00"  text-anchor="middle">
		<text><tspan font-family="Arial" > 80</tspan></text>
	</g>
</g>
<g fill="none" color="black" stroke="currentColor" stroke-width="1.00" stroke-linecap="butt" stroke-linejoin="miter">
	<path stroke='black'  d='M564.0,428.0 L564.0,419.0 M564.0,18.1 L564.0,27.1  '/>	<g transform="translate(564.0,449.9)" stroke="none" fill="black" font-family="Arial" font-size="12.00"  text-anchor="middle">
		<text><tspan font-family="Arial" > 90</tspan></text>
	</g>
</g>
<g fill="none" color="black" stroke="currentColor" stroke-width="1.00" stroke-linecap="butt" stroke-linejoin="miter">
</g>
<g fill="none" color="black" stroke="currentColor" stroke-width="1.00" stroke-linecap="butt" stroke-linejoin="miter">
	<path stroke='black'  d='M53.9,18.1 L53.9,428.0 L615.0,428.0 L615.0,18.1 L53.9,18.1 Z  '/></g>
<g fill="none" color="black" stroke="currentColor" stroke-width="1.00" stroke-linecap="butt" stroke-linejoin="miter">
</g>
	<g id="gnuplot_plot_1" ><title>pages+cached</title>
<g fill="none" color="black" stroke="currentColor" stroke-width="1.00" stroke-linecap="butt" stroke-linejoin="miter">
	<g transform="translate(275.6,467.9)" stroke="none" fill="black" font-family="Arial" font-size="12.00"  text-anchor="end">
		<text><tspan font-family="Arial" >pages+cached</tspan></text>
	</g>
</g>
<g fill="none" color="black" stroke="currentColor" stroke-width="1.00" stroke-linecap="butt" stroke-linejoin="miter">
	<path stroke='rgb(148,   0, 211)'  d='M283.9,464.0 L326.1,464.0 M53.9,287.3 L59.6,266.4 L65.2,324.0 L70.9,261.9 L76.6,272.3 L82.2,89.6
		L87.9,379.2 L93.6,226.6 L99.2,342.8 L104.9,280.5 L110.6,372.0 L116.2,362.4 L121.9,277.5 L127.6,26.0
		L133.2,272.4 L138.9,216.0 L144.6,374.5 L150.3,197.8 L155.9,255.9 L161.6,373.0 L167.3,272.7 L172.9,267.6
		L178.6,247.3 L184.3,368.8 L189.9,239.9 L195.6,175.4 L201.3,363.9 L206.9,259.7 L212.6,290.0 L218.3,343.2
		L223.9,262.6 L229.6,351.6 L235.3,382.8 L240.9,391.5 L246.6,403.6 L252.3,206.8 L257.9,317.4 L263.6,28.8
		L269.3,354.1 L274.9,328.2 L280.6,265.3 L286.3,266.1 L291.9,230.6 L297.6,170.3 L303.3,358.9 L308.9,236.6
		L314.6,372.0 L320.3,151.0 L325.9,389.0 L331.6,254.4 L337.3,360.9 L343.0,145.0 L348.6,333.0 L354.3,349.0
		L360.0,245.0 L365.6,320.3 L371.3,314.3 L377.0,344.9 L382.6,289.9 L388.3,249.8 L394.0,385.5 L399.6,336.0
		L405.3,400.9 L411.0,330.0 L416.6,248.3 L422.3,204.9 L428.0,373.2 L433.6,285.4 L439.3,340.2 L445.0,376.2
		L450.6,382.1 L456.3,371.2 L462.0,221.0 L467.6,321.8 L473.3,279.9 L479.0,355.6 L484.6,379.8 L490.3,420.1
		L496.0,364.4 L501.6,277.3 L507.3,229.3 L513.0,290.4 L518.6,273.7 L524.3,390.8 L530.0,364.0 L535.7,388.2
		L541.3,363.7 L547.0,372.6 L552.7,377.7 L558.3,380.0 L564.0,267.9 L569.7,351.8 L575.3,343.4 L581.0,376.7
		L586.7,255.5 L592.3,380.5 L598.0,371.3 L603.7,370.3 L609.3,242.9 L615.0,249.7  '/></g>
	</g>
	<g id="gnuplot_plot_2" ><title>pages+cached+nointeractive</title>
<g fill="none" color="black" stroke="currentColor" stroke-width="1.00" stroke-linecap="butt" stroke-linejoin="miter">
	<g transform="translate(275.6,485.9)" stroke="none" fill="black" font-family="Arial" font-size="12.00"  text-anchor="end">
		<text><tspan font-family="Arial" >pages+cached+nointeractive</tspan></text>
	</g>
</g>
<g fill="none" color="black" stroke="currentColor" stroke-width="1.00" stroke-linecap="butt" stroke-linejoin="miter">
	<path stroke='rgb(  0, 158, 115)'  d='M283.9,482.0 L326.1,482.0 M53.9,238.8 L59.6,392.8 L65.2,160.6 L70.9,295.8 L76.6,258.5 L82.2,370.7
		L87.9,241.7 L93.6,384.9 L99.2,264.3 L104.9,133.9 L110.6,292.6 L116.2,263.2 L121.9,302.6 L127.6,258.1
		L133.2,391.4 L138.9,387.5 L144.6,277.7 L150.3,402.2 L155.9,367.1 L161.6,272.2 L167.3,384.1 L172.9,373.6
		L178.6,388.1 L184.3,282.1 L189.9,180.4 L195.6,359.6 L201.3,389.0 L206.9,390.1 L212.6,382.1 L218.3,401.1
		L223.9,279.7 L229.6,387.8 L235.3,389.2 L240.9,255.9 L246.6,394.2 L252.3,401.5 L257.9,336.6 L263.6,335.3
		L269.3,277.1 L274.9,361.0 L280.6,382.4 L286.3,285.4 L291.9,415.7 L297.6,280.2 L303.3,387.2 L308.9,361.2
		L314.6,369.8 L320.3,336.2 L325.9,320.8 L331.6,381.1 L337.3,369.2 L343.0,363.8 L348.6,363.1 L354.3,388.6
		L360.0,354.2 L365.6,384.5 L371.3,230.4 L377.0,285.8 L382.6,373.7 L388.3,404.4 L394.0,383.1 L399.6,282.4
		L405.3,378.3 L411.0,398.9 L416.6,394.8 L422.3,362.5 L428.0,385.7 L433.6,384.1 L439.3,293.1 L445.0,367.2
		L450.6,252.8 L456.3,266.3 L462.0,361.9 L467.6,270.5 L473.3,366.2 L479.0,376.5 L484.6,387.0 L490.3,387.6
		L496.0,394.8 L501.6,413.8 L507.3,336.2 L513.0,356.3 L518.6,316.5 L524.3,386.5 L530.0,379.5 L535.7,239.9
		L541.3,376.7 L547.0,244.7 L552.7,368.5 L558.3,369.5 L564.0,392.5 L569.7,294.0 L575.3,395.6 L581.0,390.0
		L586.7,349.0 L592.3,284.1 L598.0,389.3 L603.7,373.7 L609.3,271.5 L615.0,327.7  '/></g>
	</g>
	<g id="gnuplot_plot_3" ><title>score p10=1282</title>
<g fill="none" color="black" stroke="currentColor" stroke-width="1.00" stroke-linecap="butt" stroke-linejoin="miter">
	<g transform="translate(550.2,467.9)" stroke="none" fill="black" font-family="Arial" font-size="12.00"  text-anchor="end">
		<text><tspan font-family="Arial" >score p10=1282</tspan></text>
	</g>
</g>
<g fill="none" color="black" stroke="currentColor" stroke-width="1.00" stroke-linecap="butt" stroke-linejoin="miter">
	<path stroke='rgb( 86, 180, 233)'  d='M558.5,464.0 L600.7,464.0  '/></g>
	</g>
	<g id="gnuplot_plot_4" ><title>score median=3500</title>
<g fill="none" color="black" stroke="currentColor" stroke-width="1.00" stroke-linecap="butt" stroke-linejoin="miter">
	<g transform="translate(550.2,485.9)" stroke="none" fill="black" font-family="Arial" font-size="12.00"  text-anchor="end">
		<text><tspan font-family="Arial" >score median=3500</tspan></text>
	</g>
</g>
<g fill="none" color="black" stroke="currentColor" stroke-width="1.00" stroke-linecap="butt" stroke-linejoin="miter">
	<path stroke='rgb(230, 159,   0)'  d='M558.5,482.0 L600.7,482.0  '/></g>
	</g>
<g fill="none" color="#FFFFFF" stroke="rgb(230, 159,   0)" stroke-width="2.00" stroke-linecap="butt" stroke-linejoin="miter">
</g>
<g fill="none" color="black" stroke="currentColor" stroke-width="2.00" stroke-linecap="butt" stroke-linejoin="miter">
</g>
<g fill="none" color="black" stroke="black" stroke-width="1.00" stroke-linecap="butt" stroke-linejoin="miter">
</g>
<g fill="none" color="black" stroke="currentColor" stroke-width="1.00" stroke-linecap="butt" stroke-linejoin="miter">
	<path stroke='black'  d='M53.9,18.1 L53.9,428.0 L615.0,428.0 L615.0,18.1 L53.9,18.1 Z  '/></g>
<g fill="none" color="black" stroke="currentColor" stroke-width="1.00" stroke-linecap="butt" stroke-linejoin="miter">
</g>
</g>
</svg>
